X: 11406
T: East Clare, The
R: reel
M: 4/4
K: Fmajor
FG|A2 AG AccA|G2 GF GABG|A2 AG AccA|GFGA ~F3G|
A2 AG AccA|G2 GF GABG|A2 AG AccA|GFGA ~F3G||
|:A~c3 d2 cA|FAcA GAFG|A~c3 d2 cA|GFGA ~F3G|
A~c3 A~c3|AccA BGAF|FGAF GABG|cAGA ~F3G:|

